public/logosgooglegmail.svg

<svg width="41" height="40" viewBox="0 0 41 40" fill="none" xmlns="http://www.w3.org/2000/svg">
<g clip-path="url(#clip0_1852_109)">
<path d="M9.59094 39.8049V19.3054L4.79797 13.4893L0.5 10.2617V36.1873C0.5 38.189 1.72266 39.8049 3.22734 39.8049H9.59094Z" fill="#4285F4"/>
<path d="M31.4082 39.8047H37.7718C39.281 39.8047 40.4991 38.1828 40.4991 36.1871V10.2617L35.631 13.9585L31.4082 19.3052V39.8047Z" fill="#34A853"/>
<path d="M9.59066 19.3048L8.93848 11.295L9.59066 3.62891L20.4997 14.4815L31.4088 3.62891L32.1383 10.8811L31.4088 19.3048L20.4997 30.1574L9.59066 19.3048Z" fill="#EA4335"/>
<path d="M31.4082 3.62771V19.3036L40.4991 10.2598V5.43641C40.4991 0.962838 36.6491 -1.58742 33.9538 1.09548L31.4082 3.62771Z" fill="#FBBC04"/>
<path d="M0.5 10.2599L4.68109 14.4195L9.59094 19.3037V3.6278L7.04531 1.09557C4.34531 -1.58753 0.5 0.962932 0.5 5.4363V10.2597V10.2599Z" fill="#C5221F"/>
</g>
<defs>
<clipPath id="clip0_1852_109">
<rect width="40" height="40" fill="white" transform="translate(0.5)"/>
</clipPath>
</defs>
</svg>

<svg width="41" height="40" fill="none" xmlns="http://www.w3.org/2000/svg"><g clip-path="url(#a)"><path d="M9.59 39.805v-20.5L4.799 13.49.5 10.262v25.925c0 2.002 1.223 3.618 2.727 3.618h6.364z" fill="#4285F4"/><path d="M31.408 39.805h6.364c1.509 0 2.727-1.622 2.727-3.618V10.262l-4.868 3.697-4.223 5.346v20.5z" fill="#34A853"/><path d="m9.59 19.305-.652-8.01.653-7.666L20.5 14.482 31.409 3.629l.73 7.252-.73 8.424-10.91 10.852L9.592 19.305z" fill="#EA4335"/><path d="M31.408 3.628v15.676L40.5 10.26V5.436c0-4.473-3.85-7.023-6.545-4.34l-2.546 2.532z" fill="#FBBC04"/><path d="m.5 10.26 4.181 4.16 4.91 4.884V3.628L7.045 1.096C4.345-1.588.5.963.5 5.436v4.824z" fill="#C5221F"/></g><defs><clipPath id="a"><path fill="#fff" transform="translate(.5)" d="M0 0h40v40H0z"/></clipPath></defs></svg>
